X: 36058
T: Scartaglen, The
R: reel
M: 4/4
K: Dmajor
D2 (3FED FAdB|A2FD EA3|D2(3FED FAdB|AFDF EFDA|
D2 (3FED FAdB|A2FD EB3|D2(3FED FAdB|AFDF EF D2||
Adfd edfd|Adfd e2 dB|Adfd edfd|AFDE FE3|
Adfd edfd|Adfd eB B2|g3e f3e|dBAF EFDF||
A3f edfd|A2 fd e2 dB|A3f edfd|AFDE FE3|
Adfd edfd|Adfd eB B2|g3e f3e|dBAF EFDA||

